Simply-Cyan-Circles/scalable/apps/org.kde.plasma.digitalclock.svg

<svg xmlns="http://www.w3.org/2000/svg" width="48" height="48" viewBox="0 0 12.7 12.7"><path d="M6.34.07a6.29 6.29 0 0 0-6.29 6.3 6.29 6.29 0 0 0 6.3 6.28 6.29 6.29 0 0 0 6.28-6.29A6.29 6.29 0 0 0 6.34.07zM6.32 1l.01.01a5.4 5.4 0 0 1 5.4 5.4 5.4 5.4 0 0 1-5.4 5.41 5.4 5.4 0 0 1-5.41-5.4A5.4 5.4 0 0 1 6.32 1zM2.934 3.577a.668.668 0 0 0-.45.16.942.942 0 0 0-.278.441c-.06.187-.09.41-.09.668 0 .186.017.356.049.509.033.151.081.285.145.4.066.115.15.204.256.268a.71.71 0 0 0 .368.094.687.687 0 0 0 .363-.094.688.688 0 0 0 .25-.27 1.43 1.43 0 0 0 .141-.4c.031-.151.047-.32.047-.507 0-.194-.017-.368-.05-.522a1.338 1.338 0 0 0-.148-.399.677.677 0 0 0-.603-.348zm6.87 0a.814.814 0 0 0-.529.165.545.545 0 0 0-.204.446c0 .144.042.268.126.372.085.104.196.18.33.224a.8.8 0 0 0-.376.256.656.656 0 0 0-.13.415c0 .137.035.256.107.356.073.1.167.173.283.22.116.047.247.071.392.071.224 0 .41-.057.558-.17a.566.566 0 0 0 .222-.477.682.682 0 0 0-.136-.417.716.716 0 0 0-.364-.257.723.723 0 0 0 .326-.226.57.57 0 0 0 .121-.367.543.543 0 0 0-.202-.446c-.134-.11-.308-.165-.524-.165zm-4.882.034c-.058.04-.144.081-.259.123-.114.04-.212.069-.295.085v.223c.074-.01.163-.032.268-.066.107-.034.194-.07.264-.11v2h-.583v.202h1.379v-.202h-.52V3.611h-.254zm2.884 0c-.057.04-.143.081-.258.123-.114.04-.212.069-.295.085v.223c.074-.01.164-.032.269-.066.106-.034.193-.07.263-.11v2h-.584v.202h1.38v-.202H8.06V3.611h-.254zm1.997.173c.14 0 .252.037.336.11a.36.36 0 0 1 .126.288.48.48 0 0 1-.116.33.626.626 0 0 1-.346.181.658.658 0 0 1-.349-.182.475.475 0 0 1-.117-.33.36.36 0 0 1 .128-.287.505.505 0 0 1 .338-.11zm-6.869.02c.352 0 .527.345.527 1.032 0 .347-.045.61-.137.788-.09.177-.22.266-.39.266-.171 0-.305-.09-.401-.268-.095-.18-.143-.44-.143-.784 0-.329.047-.583.144-.763.097-.18.231-.27.4-.27zm3.432.484a.194.194 0 0 0-.15.057.191.191 0 0 0 0 .266.198.198 0 0 0 .15.055c.065 0 .115-.018.149-.055a.191.191 0 0 0 0-.266c-.034-.038-.084-.057-.15-.057zm3.437.602a.742.742 0 0 1 .376.192c.096.094.144.21.144.347 0 .305-.173.457-.52.457-.17 0-.301-.04-.392-.119a.428.428 0 0 1-.134-.337c0-.141.048-.258.144-.35a.78.78 0 0 1 .382-.19zm-3.437.82a.198.198 0 0 0-.15.056.186.186 0 0 0-.054.132c0 .05.018.095.053.133a.198.198 0 0 0 .15.056c.066 0 .116-.019.15-.056a.19.19 0 0 0 .053-.133.186.186 0 0 0-.053-.132c-.034-.037-.084-.056-.15-.056zM3.944 7.599a.42.42 0 0 0-.28.096.564.564 0 0 0-.17.264 1.29 1.29 0 0 0-.056.401c0 .112.01.214.03.306.02.09.05.17.09.24.04.069.093.122.158.16a.45.45 0 0 0 .228.057.417.417 0 0 0 .38-.218.841.841 0 0 0 .087-.24c.019-.091.029-.193.029-.305 0-.116-.011-.22-.031-.313a.787.787 0 0 0-.091-.24.413.413 0 0 0-.374-.208zm1.736 0a.42.42 0 0 0-.279.096.564.564 0 0 0-.171.264 1.29 1.29 0 0 0-.056.401c0 .112.01.214.03.306.02.09.05.17.09.24.04.069.093.122.158.16a.45.45 0 0 0 .228.057.417.417 0 0 0 .38-.218.841.841 0 0 0 .087-.24c.02-.091.029-.193.029-.305 0-.116-.01-.22-.03-.313a.787.787 0 0 0-.092-.24.413.413 0 0 0-.374-.208zm1.25 0c-.096 0-.181.02-.255.063a.427.427 0 0 0-.17.165.464.464 0 0 0 .078.55.47.47 0 0 0 .314.12c.07 0 .137-.016.2-.05l-.104.133-.389.514h.201l.367-.493.096-.135c.022-.033.047-.073.072-.12a.569.569 0 0 0 .038-.458.424.424 0 0 0-.243-.25.53.53 0 0 0-.206-.039zm-4.227.02a.717.717 0 0 1-.16.074c-.07.024-.132.041-.183.051v.134c.046-.006.101-.02.166-.04a.893.893 0 0 0 .164-.065v1.2h-.361v.12h.853v-.12H2.86V7.619h-.157zm5.945 0a.718.718 0 0 1-.16.074c-.071.024-.132.041-.184.051v.134c.046-.006.102-.02.167-.04a.893.893 0 0 0 .163-.065v1.2h-.361v.12h.854v-.12h-.322V7.619h-.157zm.872 0l-.03.78.138.017a.388.388 0 0 1 .267-.108.31.31 0 0 1 .174.045.25.25 0 0 1 .1.115c.02.047.03.1.03.16 0 .109-.032.194-.093.255a.335.335 0 0 1-.246.09.77.77 0 0 1-.37-.11l-.059.13a.91.91 0 0 0 .44.122c.071 0 .137-.01.197-.031a.467.467 0 0 0 .158-.091.404.404 0 0 0 .107-.155.558.558 0 0 0-.013-.437.388.388 0 0 0-.154-.163.464.464 0 0 0-.244-.062.483.483 0 0 0-.274.08l.017-.504h.63l.013-.133H9.52zm-2.586.112c.1 0 .177.031.231.092a.328.328 0 0 1 .083.227.351.351 0 0 1-.022.126.266.266 0 0 1-.13.15.35.35 0 0 1-.17.041.305.305 0 0 1-.23-.085.313.313 0 0 1-.083-.226.33.33 0 0 1 .085-.23.303.303 0 0 1 .236-.095zm-2.99.004c.218 0 .326.207.326.62 0 .208-.028.365-.085.472-.056.106-.136.16-.241.16-.106 0-.19-.054-.249-.161-.058-.108-.088-.264-.088-.47 0-.198.03-.35.09-.458.06-.109.142-.163.247-.163zm1.736 0c.218 0 .327.207.327.62 0 .208-.029.365-.085.472-.057.106-.137.16-.242.16-.106 0-.188-.054-.248-.161-.059-.108-.088-.264-.088-.47 0-.198.029-.35.089-.458.06-.109.143-.163.247-.163zm-.86 1.15c-.037 0-.065.01-.084.032a.114.114 0 0 0-.029.078.108.108 0 0 0 .112.11c.036 0 .063-.011.081-.033a.112.112 0 0 0 .029-.077c0-.03-.01-.057-.029-.078-.018-.022-.045-.032-.08-.032zm2.971 0c-.036 0-.064.01-.083.032a.113.113 0 0 0-.028.078c0 .03.009.055.028.077.02.022.048.033.083.033.036 0 .063-.011.081-.033a.113.113 0 0 0 .03-.077c0-.03-.01-.057-.03-.078-.018-.022-.045-.032-.08-.032z" fill="#5beedc"/></svg>

<?xml version="1.0" encoding="UTF-8" standalone="no"?>
<svg
   xmlns:dc="http://purl.org/dc/elements/1.1/"
   xmlns:cc="http://creativecommons.org/ns#"
   xmlns:rdf="http://www.w3.org/1999/02/22-rdf-syntax-ns#"
   xmlns:svg="http://www.w3.org/2000/svg"
   xmlns="http://www.w3.org/2000/svg"
   xmlns:sodipodi="http://sodipodi.sourceforge.net/DTD/sodipodi-0.dtd"
   xmlns:inkscape="http://www.inkscape.org/namespaces/inkscape"
   width="48"
   height="48"
   viewBox="0 0 12.7 12.7"
   version="1.1"
   id="svg4"
   sodipodi:docname="org.kde.plasma.digitalclock.svg"
   inkscape:version="0.92.4 (5da689c313, 2019-01-14)">
  <metadata
     id="metadata10">
    <rdf:RDF>
      <cc:Work
         rdf:about="">
        <dc:format>image/svg+xml</dc:format>
        <dc:type
           rdf:resource="http://purl.org/dc/dcmitype/StillImage" />
        <dc:title></dc:title>
      </cc:Work>
    </rdf:RDF>
  </metadata>
  <defs
     id="defs8" />
  <sodipodi:namedview
     pagecolor="#ffffff"
     bordercolor="#666666"
     borderopacity="1"
     objecttolerance="10"
     gridtolerance="10"
     guidetolerance="10"
     inkscape:pageopacity="0"
     inkscape:pageshadow="2"
     inkscape:window-width="1087"
     inkscape:window-height="480"
     id="namedview6"
     showgrid="false"
     inkscape:zoom="4.9166667"
     inkscape:cx="2.1355932"
     inkscape:cy="24"
     inkscape:window-x="0"
     inkscape:window-y="25"
     inkscape:window-maximized="0"
     inkscape:current-layer="svg4" />
  <path
     d="M 6.34,0.07 A 6.29,6.29 0 0 0 0.05,6.37 6.29,6.29 0 0 0 6.35,12.65 6.29,6.29 0 0 0 12.63,6.36 6.29,6.29 0 0 0 6.34,0.07 Z M 6.32,1 6.33,1.01 a 5.4,5.4 0 0 1 5.4,5.4 5.4,5.4 0 0 1 -5.4,5.41 A 5.4,5.4 0 0 1 0.92,6.42 5.4,5.4 0 0 1 6.32,1 Z M 2.934,3.577 a 0.668,0.668 0 0 0 -0.45,0.16 0.942,0.942 0 0 0 -0.278,0.441 c -0.06,0.187 -0.09,0.41 -0.09,0.668 0,0.186 0.017,0.356 0.049,0.509 0.033,0.151 0.081,0.285 0.145,0.4 0.066,0.115 0.15,0.204 0.256,0.268 a 0.71,0.71 0 0 0 0.368,0.094 0.687,0.687 0 0 0 0.363,-0.094 0.688,0.688 0 0 0 0.25,-0.27 1.43,1.43 0 0 0 0.141,-0.4 C 3.719,5.202 3.735,5.033 3.735,4.846 3.735,4.652 3.718,4.478 3.685,4.324 A 1.338,1.338 0 0 0 3.537,3.925 0.677,0.677 0 0 0 2.934,3.577 Z m 6.87,0 A 0.814,0.814 0 0 0 9.275,3.742 0.545,0.545 0 0 0 9.071,4.188 c 0,0.144 0.042,0.268 0.126,0.372 0.085,0.104 0.196,0.18 0.33,0.224 A 0.8,0.8 0 0 0 9.151,5.04 0.656,0.656 0 0 0 9.021,5.455 c 0,0.137 0.035,0.256 0.107,0.356 0.073,0.1 0.167,0.173 0.283,0.22 0.116,0.047 0.247,0.071 0.392,0.071 0.224,0 0.41,-0.057 0.558,-0.17 A 0.566,0.566 0 0 0 10.583,5.455 0.682,0.682 0 0 0 10.447,5.038 0.716,0.716 0 0 0 10.083,4.781 0.723,0.723 0 0 0 10.409,4.555 0.57,0.57 0 0 0 10.53,4.188 0.543,0.543 0 0 0 10.328,3.742 C 10.194,3.632 10.02,3.577 9.804,3.577 Z M 4.922,3.611 C 4.864,3.651 4.778,3.692 4.663,3.734 4.549,3.774 4.451,3.803 4.368,3.819 V 4.042 C 4.442,4.032 4.531,4.01 4.636,3.976 4.743,3.942 4.83,3.906 4.9,3.866 v 2 H 4.317 V 6.068 H 5.696 V 5.866 H 5.176 V 3.611 Z m 2.884,0 C 7.749,3.651 7.663,3.692 7.548,3.734 7.434,3.774 7.336,3.803 7.253,3.819 V 4.042 C 7.327,4.032 7.417,4.01 7.522,3.976 7.628,3.942 7.715,3.906 7.785,3.866 v 2 H 7.201 v 0.202 h 1.38 V 5.866 H 8.06 V 3.611 Z m 1.997,0.173 c 0.14,0 0.252,0.037 0.336,0.11 A 0.36,0.36 0 0 1 10.265,4.182 0.48,0.48 0 0 1 10.149,4.512 0.626,0.626 0 0 1 9.803,4.693 0.658,0.658 0 0 1 9.454,4.511 0.475,0.475 0 0 1 9.337,4.181 0.36,0.36 0 0 1 9.465,3.894 0.505,0.505 0 0 1 9.803,3.784 Z m -6.869,0.02 c 0.352,0 0.527,0.345 0.527,1.032 0,0.347 -0.045,0.61 -0.137,0.788 C 3.234,5.801 3.104,5.89 2.934,5.89 2.763,5.89 2.629,5.8 2.533,5.622 2.438,5.442 2.39,5.182 2.39,4.838 c 0,-0.329 0.047,-0.583 0.144,-0.763 0.097,-0.18 0.231,-0.27 0.4,-0.27 z m 3.432,0.484 a 0.194,0.194 0 0 0 -0.15,0.057 0.191,0.191 0 0 0 0,0.266 0.198,0.198 0 0 0 0.15,0.055 c 0.065,0 0.115,-0.018 0.149,-0.055 a 0.191,0.191 0 0 0 0,-0.266 C 6.481,4.307 6.431,4.288 6.365,4.288 Z M 9.803,4.89 a 0.742,0.742 0 0 1 0.376,0.192 c 0.096,0.094 0.144,0.21 0.144,0.347 0,0.305 -0.173,0.457 -0.52,0.457 -0.17,0 -0.301,-0.04 -0.392,-0.119 A 0.428,0.428 0 0 1 9.277,5.43 c 0,-0.141 0.048,-0.258 0.144,-0.35 A 0.78,0.78 0 0 1 9.803,4.89 Z M 6.366,5.71 A 0.198,0.198 0 0 0 6.216,5.766 0.186,0.186 0 0 0 6.162,5.898 c 0,0.05 0.018,0.095 0.053,0.133 a 0.198,0.198 0 0 0 0.15,0.056 c 0.066,0 0.116,-0.019 0.15,-0.056 A 0.19,0.19 0 0 0 6.568,5.898 0.186,0.186 0 0 0 6.515,5.766 C 6.481,5.729 6.431,5.71 6.365,5.71 Z M 3.944,7.599 A 0.42,0.42 0 0 0 3.664,7.695 0.564,0.564 0 0 0 3.494,7.959 1.29,1.29 0 0 0 3.438,8.36 c 0,0.112 0.01,0.214 0.03,0.306 0.02,0.09 0.05,0.17 0.09,0.24 0.04,0.069 0.093,0.122 0.158,0.16 A 0.45,0.45 0 0 0 3.944,9.123 0.417,0.417 0 0 0 4.324,8.905 0.841,0.841 0 0 0 4.411,8.665 C 4.43,8.574 4.44,8.472 4.44,8.36 4.44,8.244 4.429,8.14 4.409,8.047 A 0.787,0.787 0 0 0 4.318,7.807 0.413,0.413 0 0 0 3.944,7.599 Z m 1.736,0 A 0.42,0.42 0 0 0 5.401,7.695 0.564,0.564 0 0 0 5.23,7.959 1.29,1.29 0 0 0 5.174,8.36 c 0,0.112 0.01,0.214 0.03,0.306 0.02,0.09 0.05,0.17 0.09,0.24 0.04,0.069 0.093,0.122 0.158,0.16 A 0.45,0.45 0 0 0 5.68,9.123 0.417,0.417 0 0 0 6.06,8.905 0.841,0.841 0 0 0 6.147,8.665 C 6.167,8.574 6.176,8.472 6.176,8.36 6.176,8.244 6.166,8.14 6.146,8.047 A 0.787,0.787 0 0 0 6.054,7.807 0.413,0.413 0 0 0 5.68,7.599 Z m 1.25,0 c -0.096,0 -0.181,0.02 -0.255,0.063 a 0.427,0.427 0 0 0 -0.17,0.165 0.464,0.464 0 0 0 0.078,0.55 0.47,0.47 0 0 0 0.314,0.12 c 0.07,0 0.137,-0.016 0.2,-0.05 L 6.993,8.58 6.604,9.094 H 6.805 L 7.172,8.601 7.268,8.466 C 7.29,8.433 7.315,8.393 7.34,8.346 A 0.569,0.569 0 0 0 7.378,7.888 0.424,0.424 0 0 0 7.135,7.638 0.53,0.53 0 0 0 6.929,7.599 Z M 2.703,7.619 A 0.717,0.717 0 0 1 2.543,7.693 C 2.473,7.717 2.411,7.734 2.36,7.744 V 7.878 C 2.406,7.872 2.461,7.858 2.526,7.838 A 0.893,0.893 0 0 0 2.69,7.773 v 1.2 H 2.329 v 0.12 H 3.182 V 8.973 H 2.86 V 7.619 Z m 5.945,0 A 0.718,0.718 0 0 1 8.488,7.693 C 8.417,7.717 8.356,7.734 8.304,7.744 V 7.878 C 8.35,7.872 8.406,7.858 8.471,7.838 A 0.893,0.893 0 0 0 8.634,7.773 v 1.2 H 8.273 v 0.12 H 9.127 V 8.973 H 8.805 V 7.619 Z m 0.872,0 -0.03,0.78 0.138,0.017 a 0.388,0.388 0 0 1 0.267,-0.108 0.31,0.31 0 0 1 0.174,0.045 0.25,0.25 0 0 1 0.1,0.115 c 0.02,0.047 0.03,0.1 0.03,0.16 0,0.109 -0.032,0.194 -0.093,0.255 A 0.335,0.335 0 0 1 9.86,8.973 0.77,0.77 0 0 1 9.49,8.863 l -0.059,0.13 a 0.91,0.91 0 0 0 0.44,0.122 c 0.071,0 0.137,-0.01 0.197,-0.031 A 0.467,0.467 0 0 0 10.226,8.993 0.404,0.404 0 0 0 10.333,8.838 0.558,0.558 0 0 0 10.32,8.401 0.388,0.388 0 0 0 10.166,8.238 0.464,0.464 0 0 0 9.922,8.176 0.483,0.483 0 0 0 9.648,8.256 L 9.665,7.752 h 0.63 L 10.308,7.619 Z M 6.934,7.731 c 0.1,0 0.177,0.031 0.231,0.092 A 0.328,0.328 0 0 1 7.248,8.05 0.351,0.351 0 0 1 7.226,8.176 0.266,0.266 0 0 1 7.096,8.326 0.35,0.35 0 0 1 6.926,8.367 0.305,0.305 0 0 1 6.696,8.282 0.313,0.313 0 0 1 6.613,8.056 0.33,0.33 0 0 1 6.698,7.826 0.303,0.303 0 0 1 6.934,7.731 Z m -2.99,0.004 c 0.218,0 0.326,0.207 0.326,0.62 C 4.27,8.563 4.242,8.72 4.185,8.827 4.129,8.933 4.049,8.987 3.944,8.987 3.838,8.987 3.754,8.933 3.695,8.826 3.637,8.718 3.607,8.562 3.607,8.356 c 0,-0.198 0.03,-0.35 0.09,-0.458 0.06,-0.109 0.142,-0.163 0.247,-0.163 z m 1.736,0 c 0.218,0 0.327,0.207 0.327,0.62 0,0.208 -0.029,0.365 -0.085,0.472 C 5.865,8.933 5.785,8.987 5.68,8.987 5.574,8.987 5.492,8.933 5.432,8.826 5.373,8.718 5.344,8.562 5.344,8.356 5.344,8.158 5.373,8.006 5.433,7.898 5.493,7.789 5.576,7.735 5.68,7.735 Z m -0.86,1.15 c -0.037,0 -0.065,0.01 -0.084,0.032 A 0.114,0.114 0 0 0 4.707,8.995 0.108,0.108 0 0 0 4.819,9.105 C 4.855,9.105 4.882,9.094 4.9,9.072 A 0.112,0.112 0 0 0 4.929,8.995 C 4.929,8.965 4.919,8.938 4.9,8.917 4.882,8.895 4.855,8.885 4.82,8.885 Z m 2.971,0 c -0.036,0 -0.064,0.01 -0.083,0.032 A 0.113,0.113 0 0 0 7.68,8.995 c 0,0.03 0.009,0.055 0.028,0.077 0.02,0.022 0.048,0.033 0.083,0.033 0.036,0 0.063,-0.011 0.081,-0.033 A 0.113,0.113 0 0 0 7.902,8.995 C 7.902,8.965 7.892,8.938 7.872,8.917 7.854,8.895 7.827,8.885 7.792,8.885 Z"
     id="path2"
     inkscape:connector-curvature="0"
     style="fill:#5beedc" />
</svg>
